(BATBOTUPSIDE)
(T1  D=2. CR=0. - ZMIN=-4.9 - FLAT END MILL)
G90 G94 G91.1 G40 G49 G17
G21
G28 G91 Z0.
G90

(2D CONTOUR1)
M5
M9
T1 M6
S10000 M3
G54
G0 X144.798 Y19.1
G43 Z10. H1
Z5.
G1 Z2. F30.
Z-1.
X139.998 F900.
G2 X138.898 Y20.2 I0. J1.1
G1 Y24.1
X121.1
Y20.2
G2 X120. Y19.1 I-1.1 J0.
G1 X101.1
Y17.5
G2 X100. Y16.4 I-1.1 J0.
G1 X91.1
Y13.6
X100.
G2 X101.1 Y12.5 I0. J-1.1
G1 Y10.9
X120.
G2 X121.1 Y9.8 I0. J-1.1
G1 Y5.9
X138.898
Y9.8
G2 X139.998 Y10.9 I1.1 J0.
G1 X144.798
G0 Z5.
Y19.1
G1 Z1. F30.
Z-2.
X139.998 F900.
G2 X138.898 Y20.2 I0. J1.1
G1 Y24.1
X121.1
Y20.2
G2 X120. Y19.1 I-1.1 J0.
G1 X101.1
Y17.5
G2 X100. Y16.4 I-1.1 J0.
G1 X91.1
Y13.6
X100.
G2 X101.1 Y12.5 I0. J-1.1
G1 Y10.9
X120.
G2 X121.1 Y9.8 I0. J-1.1
G1 Y5.9
X138.898
Y9.8
G2 X139.998 Y10.9 I1.1 J0.
G1 X144.798
G0 Z5.
Y19.1
G1 Z0. F30.
Z-2.4
X139.998 F900.
G2 X138.898 Y20.2 I0. J1.1
G1 Y24.1
X121.1
Y20.2
G2 X120. Y19.1 I-1.1 J0.
G1 X101.1
Y17.5
G2 X100. Y16.4 I-1.1 J0.
G1 X91.1
Y13.6
X100.
G2 X101.1 Y12.5 I0. J-1.1
G1 Y10.9
X120.
G2 X121.1 Y9.8 I0. J-1.1
G1 Y5.9
X138.898
Y9.8
G2 X139.998 Y10.9 I1.1 J0.
G1 X144.798
G0 Z5.
X0.202
G1 Z2. F30.
Z-1.
X5.002 F900.
G2 X6.102 Y9.8 I0. J-1.1
G1 Y5.9
X23.9
Y9.8
G2 X25. Y10.9 I1.1 J0.
G1 X43.9
Y12.5
G2 X45. Y13.6 I1.1 J0.
G1 X53.9
Y16.4
X45.
G2 X43.9 Y17.5 I0. J1.1
G1 Y19.1
X25.
G2 X23.9 Y20.2 I0. J1.1
G1 Y24.1
X6.102
Y20.2
G2 X5.002 Y19.1 I-1.1 J0.
G1 X0.202
G0 Z5.
Y10.9
G1 Z1. F30.
Z-2.
X5.002 F900.
G2 X6.102 Y9.8 I0. J-1.1
G1 Y5.9
X23.9
Y9.8
G2 X25. Y10.9 I1.1 J0.
G1 X43.9
Y12.5
G2 X45. Y13.6 I1.1 J0.
G1 X53.9
Y16.4
X45.
G2 X43.9 Y17.5 I0. J1.1
G1 Y19.1
X25.
G2 X23.9 Y20.2 I0. J1.1
G1 Y24.1
X6.102
Y20.2
G2 X5.002 Y19.1 I-1.1 J0.
G1 X0.202
G0 Z5.
Y10.9
G1 Z0. F30.
Z-2.4
X5.002 F900.
G2 X6.102 Y9.8 I0. J-1.1
G1 Y5.9
X23.9
Y9.8
G2 X25. Y10.9 I1.1 J0.
G1 X43.9
Y12.5
G2 X45. Y13.6 I1.1 J0.
G1 X53.9
Y16.4
X45.
G2 X43.9 Y17.5 I0. J1.1
G1 Y19.1
X25.
G2 X23.9 Y20.2 I0. J1.1
G1 Y24.1
X6.102
Y20.2
G2 X5.002 Y19.1 I-1.1 J0.
G1 X0.202
G0 Z10.
X72.65 Y15.
Z5.
G1 Z2. F30.
Z-1.
G3 X72.35 I-0.15 J0. F900.
X72.65 I0.15 J0.
G1 Z-2. F30.
G3 X72.35 I-0.15 J0. F900.
X72.65 I0.15 J0.
G1 Z-3. F30.
G3 X72.35 I-0.15 J0. F900.
X72.65 I0.15 J0.
G1 Z-4. F30.
G3 X72.35 I-0.15 J0. F900.
X72.65 I0.15 J0.
G1 Z-4.9 F30.
G3 X72.35 I-0.15 J0. F900.
X72.65 I0.15 J0.
G0 Z5.
X144.798 Y-1.1
G1 Z2. F30.
Z-1.
X0.202 F900.
G2 X-0.898 Y0. I0. J1.1
G1 Y30.
G2 X0.202 Y31.1 I1.1 J0.
G1 X144.798
G2 X145.898 Y30. I0. J-1.1
G1 Y0.
G2 X144.798 Y-1.1 I-1.1 J0.
G1 Z-2. F30.
X0.202 F900.
G2 X-0.898 Y0. I0. J1.1
G1 Y30.
G2 X0.202 Y31.1 I1.1 J0.
G1 X144.798
G2 X145.898 Y30. I0. J-1.1
G1 Y0.
G2 X144.798 Y-1.1 I-1.1 J0.
G1 Z-3. F30.
X0.202 F900.
G2 X-0.898 Y0. I0. J1.1
G1 Y30.
G2 X0.202 Y31.1 I1.1 J0.
G1 X144.798
G2 X145.898 Y30. I0. J-1.1
G1 Y0.
G2 X144.798 Y-1.1 I-1.1 J0.
G1 Z-4. F30.
X0.202 F900.
G2 X-0.898 Y0. I0. J1.1
G1 Y30.
G2 X0.202 Y31.1 I1.1 J0.
G1 X144.798
G2 X145.898 Y30. I0. J-1.1
G1 Y0.
G2 X144.798 Y-1.1 I-1.1 J0.
G1 Z-4.9 F30.
X128.723 F900.
Z-4.
X124.723
Z-4.9 F30.
X92.574 F900.
Z-4.
X88.574
Z-4.9 F30.
X56.426 F900.
Z-4.
X52.426
Z-4.9 F30.
X20.277 F900.
Z-4.
X16.277
Z-4.9 F30.
X0.202 F900.
G2 X-0.898 Y0. I0. J1.1
G1 Y13.
Z-4.
Y17.
Z-4.9 F30.
Y30. F900.
G2 X0.202 Y31.1 I1.1 J0.
G1 X16.277
Z-4.
X20.277
Z-4.9 F30.
X52.426 F900.
Z-4.
X56.426
Z-4.9 F30.
X88.574 F900.
Z-4.
X92.574
Z-4.9 F30.
X124.723 F900.
Z-4.
X128.723
Z-4.9 F30.
X144.798 F900.
G2 X145.898 Y30. I0. J-1.1
G1 Y17.
Z-4.
Y13.
Z-4.9 F30.
Y0. F900.
G2 X144.798 Y-1.1 I-1.1 J0.
G0 Z5.
X110.15 Y4.6
G1 Z2. F30.
Z-1.
G3 X109.85 I-0.15 J0. F900.
X110.15 I0.15 J0.
G1 Z-2. F30.
G3 X109.85 I-0.15 J0. F900.
X110.15 I0.15 J0.
G1 Z-3. F30.
G3 X109.85 I-0.15 J0. F900.
X110.15 I0.15 J0.
G1 Z-4. F30.
G3 X109.85 I-0.15 J0. F900.
X110.15 I0.15 J0.
G1 Z-4.9 F30.
G3 X109.85 I-0.15 J0. F900.
X110.15 I0.15 J0.
G0 Z5.
Y25.4
G1 Z2. F30.
Z-1.
G3 X109.85 I-0.15 J0. F900.
X110.15 I0.15 J0.
G1 Z-2. F30.
G3 X109.85 I-0.15 J0. F900.
X110.15 I0.15 J0.
G1 Z-3. F30.
G3 X109.85 I-0.15 J0. F900.
X110.15 I0.15 J0.
G1 Z-4. F30.
G3 X109.85 I-0.15 J0. F900.
X110.15 I0.15 J0.
G1 Z-4.9 F30.
G3 X109.85 I-0.15 J0. F900.
X110.15 I0.15 J0.
G0 Z5.
X35.15
G1 Z2. F30.
Z-1.
G3 X34.85 I-0.15 J0. F900.
X35.15 I0.15 J0.
G1 Z-2. F30.
G3 X34.85 I-0.15 J0. F900.
X35.15 I0.15 J0.
G1 Z-3. F30.
G3 X34.85 I-0.15 J0. F900.
X35.15 I0.15 J0.
G1 Z-4. F30.
G3 X34.85 I-0.15 J0. F900.
X35.15 I0.15 J0.
G1 Z-4.9 F30.
G3 X34.85 I-0.15 J0. F900.
X35.15 I0.15 J0.
G0 Z5.
Y4.6
G1 Z2. F30.
Z-1.
G3 X34.85 I-0.15 J0. F900.
X35.15 I0.15 J0.
G1 Z-2. F30.
G3 X34.85 I-0.15 J0. F900.
X35.15 I0.15 J0.
G1 Z-3. F30.
G3 X34.85 I-0.15 J0. F900.
X35.15 I0.15 J0.
G1 Z-4. F30.
G3 X34.85 I-0.15 J0. F900.
X35.15 I0.15 J0.
G1 Z-4.9 F30.
G3 X34.85 I-0.15 J0. F900.
X35.15 I0.15 J0.
G0 Z10.

G28 G91 Z0.
G90
G28 G91 X0. Y0.
G90
M30
